X:1
T:Title
%%score { ( 1 3 ) | ( 2 4 ) }
L:1/8
Q:1/4=100
M:4/4
K:G
V:1 treble nm="Grand Piano"
V:3 treble 
V:2 bass 
V:4 bass 
V:1
 BdBA G2 D2 | E2 ^D2 z2 B,2 | CDEG A2 G2 | F6 z2 | cfcB A2 ^G2 | B2 A2 z2 C2 | DFAB c2 e2 | B6 z2 | %8
w: Grant~Colfax~Tullar * * * * *||||||||
 BdBA G2 D2 | E2 ^D2 z2 B,2 | B,DGB d2 ^d2 | e6 z2 | ecBc A2 Bc |[M:9/8] dB_B =B G2- GFE | %14
w: ||||||
[M:4/4] DEFG [^CA]2 [CE]2 | A4 _B4 | [Bdb]4 z4 | [cec']2 [Bdb]2 z2 [G,B,]2 | %18
w: ||||
 [Aca]2 [GBg]2 [DBd]2 [^DB^d]2 | [Fdf]4 z4 | [cec']4 z4 | z4 [Aca]4 | [dfd']4 [cec']4 | [Bdb]6 z2 | %24
w: ||||||
 [Bdb]4 z4 | [cec']2 [Bdb]2 z2 [G,B,]2 | [Aca]2 [GBg]2 [Bdb]2 [d=fd']2 | [d=fd']4 [cec']4 | %28
w: ||||
 [Geg]4 z4 | [DBd]2 [cec']2 [Bdb]2 [GBg]2 | [A^ca]4 [F=cf]4 | [GBg]6 z2 |] %32
w: ||||
V:2
 G,,2 [D,F,C]2 B,,2 [D,F,C]2 | C,2 [^D,G,C]2 G,,2 [=D,G,]2 | G,,2 [D,G,B,]2 B,,2 [D,G,B,]2 | %3
 A,,2 [D,F,]2 [D,F,]2 [D,F,]2 | D,,2 [D,F,C]2 A,,2 [D,F,C]2 | D,,2 [D,F,C]2 A,,2 [D,F,]2 | %6
 D,,2 [D,F,C]2 A,,2 [D,F,C]2 | G,,2 [D,G,]2 [G,B,]2 [G,B,]2 | G,,2 [D,F,C]2 B,,2 [D,G,B,]2 | %9
 C,2 [^D,G,C]2 G,,2 [=D,G,]2 | G,,2 [D,G,B,]2 B,,2 [D,G,B,]2 | C,2 [E,G,]2 [G,C]2 [E,G,]2 | %12
 C,2 [E,A,C]2 [A,CE]2 z2 |[M:9/8] B,,2 [D,G,B,]- [D,G,B,] [E,G,^C]2- [E,G,C] z z | %14
[M:4/4] z2 D2 z4 | C4 z4 | G,,2 D,2 [E,G,^C]2 [D,G,B,]2 | G,,2 [D,G,B,]2 [D,G,B,]2 D,2 | %18
 G,,2 [D,G,B,]2 C,2 [D,G,B,]2 | D,2 E,2 [E,G,C]2 E,2 | D,,2 D,2 [D,F,C]2 [D,F,C]2 | %21
 D,,2 [D,F,C]2 [D,F,C]2 D,2 | A,,2 D,2 D,,2 D,2 | G,,2 D,2 G,2 G,2 | G,,2 D,2 [E,G,^C]2 [D,G,B,]2 | %25
 G,,2 [D,G,B,]2 [D,G,B,]2 D,2 | G,,2 [D,G,B,]2 G,,2 [D,G,B,]2 | C,2 E,2 [E,G,C]2 E,2 | %28
 C,2 E,2 [E,G,C]2 [E,G,C]2 | G,,2 [D,G,B,]2 [D,G,B,]2 [D,G,B,]2 | B,,2 E,2 D,,2 D,2 | %31
 G,,2 D,2 G,2 z2 |] %32
V:3
 x8 | z4 =D4 | x8 | z2 C2 C2 C2 | x8 | z4 F4 | x8 | z2 B,2 E2 D2 | x8 | z4 =D4 | x8 | z2 C2 E2 C2 | %12
 x8 |[M:9/8] x9 |[M:4/4] x8 | x8 | z2 [G,B,]2 [_B^ca]2 [=Bdb]2 | z4 [GBg]4 | x8 | %19
 z2 [G,C]2 [Ece]2 [G,C]2 | z2 [F,C]2 [B^db]2 [cec']2 | [dfd']2 [cec']2 z2 [F,C]2 | %22
 z2 [F,C]2 z2 [F,C]2 | z2 [G,B,]2 [B,E]2 [B,D]2 | z2 [G,B,]2 [_B^c_b]2 [=Bd=b]2 | z4 [GBg]4 | x8 | %27
 z2 [G,C]2 z2 [G,C]2 | z2 [G,C]2 [Fdf]2 [Ece]2 | x8 | z2 [G,^C]2 z2 [F,=C]2 | %31
 z2 [G,B,]2 [B,D]2 z2 |] %32
V:4
 x8 | x8 | x8 | x8 | x8 | x8 | x8 | x8 | x8 | x8 | x8 | x8 | x8 |[M:9/8] x9 | %14
[M:4/4] [D,G,B,]2 [C,A,][B,,G,] [A,,G,]2 [A,,G,]2 | [D,F,]4- [D,F,C]4 | x8 | x8 | x8 | x8 | x8 | %21
 x8 | x8 | x8 | x8 | x8 | x8 | x8 | x8 | x8 | x8 | x8 |] %32

